build/img/text-big.svg

<svg width="837" height="326" fill="none" xmlns="http://www.w3.org/2000/svg" xmlns:xlink="http://www.w3.org/1999/xlink"><path d="M78.192 39.6H95.76V17.712S82.224 5.904 58.752 5.904C26.928 5.904 5.04 28.08 5.04 57.744c0 29.376 21.6 51.552 54.288 51.552 24.768 0 36.432-12.816 36.432-12.816v-21.6H78.192v14.256c-4.176 2.16-10.8 4.464-19.296 4.464-21.744 0-34.992-15.408-34.992-36 0-20.736 13.536-36 34.704-36 8.64 0 15.264 2.448 19.584 4.464V39.6zM198.105 108h43.2V94.752h-12.24V20.448h12.24V7.2h-112.32v13.248h12.096v74.304h-12.096V108h43.056V94.752h-12.096V21.168h50.4v73.584h-12.24V108zm102.388-88.704h12.96l-30.816 75.456h-12.816V108h26.928l9.936-24.48h44.64l9.936 24.48h26.928V94.752h-12.96L339.661 7.2h-39.168v12.096zm28.512 9.504l16.56 40.752h-33.264L329.005 28.8zm153.596 10.8h17.568V17.712S486.633 5.904 463.161 5.904c-31.824 0-53.712 22.176-53.712 51.84 0 29.376 21.6 51.552 54.288 51.552 24.768 0 36.432-12.816 36.432-12.816v-21.6h-17.568v14.256c-4.176 2.16-10.8 4.464-19.296 4.464-21.744 0-34.992-15.408-34.992-36 0-20.736 13.536-36 34.704-36 8.64 0 15.264 2.448 19.584 4.464V39.6zm50.793-19.152h12.096v74.304h-12.096V108h30.96l53.28-73.152v59.904h-12.24V108h43.2V94.752h-12.24V20.448h12.24V7.2h-30.96l-53.28 73.152V20.448h12.096V7.2h-43.056v13.248zm179.532 36h10.656v38.304h-10.656V108h28.224l33.408-42.192v28.944h-10.656V108h39.024V94.752h-10.8V56.448h10.8V43.2h-28.368L741.15 85.392V56.448h10.8V43.2h-39.024v13.248zM78.192 183.6H95.76v-21.888s-13.536-11.808-37.008-11.808c-31.824 0-53.712 22.176-53.712 51.84 0 29.376 21.6 51.552 54.288 51.552 24.768 0 36.432-12.816 36.432-12.816v-21.6H78.192v14.256c-4.176 2.16-10.8 4.464-19.296 4.464-21.744 0-34.992-15.408-34.992-36 0-20.736 13.536-36 34.704-36 8.64 0 15.264 2.448 19.584 4.464V183.6zm30.489 18c0 29.52 22.896 51.696 53.136 51.696 30.384 0 53.28-22.176 53.28-51.696s-22.896-51.696-53.28-51.696c-30.24 0-53.136 22.176-53.136 51.696zm18.864 0c0-20.736 14.4-36 34.272-36 20.016 0 34.416 15.264 34.416 36s-14.4 36-34.416 36c-19.872 0-34.272-15.264-34.272-36zm173.073-50.4l-26.352 34.992-26.208-34.992h-24.336v13.248h12.672l27.072 36.144-28.8 38.16h-12.672V252h24.336l27.936-37.152L302.202 252h24.624v-13.248h-12.96l-28.8-38.16 27.216-36.144h12.672V151.2h-24.336zm33.735 13.248h12.096v74.304h-12.096V252h46.224v-13.248h-15.264v-26.64h21.888c20.592 0 35.28-12.672 35.28-30.528 0-17.712-14.688-30.384-35.28-30.384h-52.848v13.248zm52.848.72c9.936 0 16.416 7.056 16.416 16.416s-6.48 16.56-16.416 16.56h-21.888v-32.976h21.888zm62.889-1.872h12.96l-30.816 75.456h-12.816V252h26.928l9.936-24.48h44.64l9.936 24.48h26.928v-13.248h-12.96L489.258 151.2H450.09v12.096zm28.512 9.504l16.56 40.752h-33.264l16.704-40.752zM613.848 252h43.2v-13.248h-12.24v-74.304h12.24V151.2h-43.2v13.248h12.24v28.8h-50.4v-28.8h12.096V151.2h-43.056v13.248h12.096v74.304h-12.096V252h43.056v-13.248h-12.096v-31.68h50.4v31.68h-12.24V252zm50.693-87.552h12.096v74.304h-12.096V252h30.96l53.28-73.152v59.904h-12.24V252h43.2v-13.248h-12.24v-74.304h12.24V151.2h-30.96l-53.28 73.152v-59.904h12.096V151.2h-43.056v13.248zm126.798 77.904c0 6.048 5.04 10.944 11.088 10.944 5.904 0 10.944-4.896 10.944-10.944 0-6.048-5.04-10.944-10.944-10.944-6.048 0-11.088 4.896-11.088 10.944zM10.63 284.833h21.41V315h-3.035v-27.296h-15.34V315H10.63v-30.167zm28.772 0H56.69v2.974H42.417v9.433h14.15v2.953h-14.15v11.833h14.15V315H39.402v-30.167zm22.477 0h6.009c3.445 0 5.77.15 6.972.451 1.723.424 3.131 1.299 4.225 2.625 1.094 1.313 1.64 2.967 1.64 4.963 0 2.01-.533 3.671-1.599 4.983-1.066 1.299-2.536 2.174-4.41 2.625-1.366.329-3.923.493-7.67.493h-2.152V315h-3.015v-30.167zm3.015 2.933v10.254l5.106.061c2.064 0 3.575-.185 4.532-.554a4.72 4.72 0 002.256-1.825 5.11 5.11 0 00.82-2.83 4.94 4.94 0 00-.82-2.768c-.547-.848-1.271-1.45-2.174-1.805-.888-.356-2.351-.533-4.388-.533h-5.332zm21.943-2.933h5.947c2.393 0 4.232.287 5.517.861a6.634 6.634 0 013.035 2.605c.752 1.176 1.128 2.481 1.128 3.917 0 1.34-.328 2.563-.985 3.671-.656 1.093-1.62 1.982-2.891 2.666 1.572.533 2.782 1.162 3.63 1.886a7.286 7.286 0 011.969 2.605c.478 1.012.717 2.112.717 3.302 0 2.42-.888 4.47-2.666 6.152-1.763 1.668-4.135 2.502-7.116 2.502h-8.285v-30.167zm2.953 2.953v9.659h1.723c2.091 0 3.63-.191 4.614-.574.984-.396 1.764-1.012 2.338-1.846a4.899 4.899 0 00.861-2.809c0-1.381-.485-2.461-1.456-3.24-.957-.793-2.488-1.19-4.594-1.19H89.79zm0 12.694v11.567h3.732c2.202 0 3.815-.212 4.84-.636a5.497 5.497 0 002.461-2.03c.629-.916.944-1.907.944-2.974 0-1.34-.438-2.509-1.313-3.507-.875-.998-2.078-1.681-3.61-2.05-1.025-.246-2.809-.37-5.352-.37H89.79zm33.407-15.647L137.266 315h-3.241l-4.737-9.926h-13.002L111.569 315h-3.363l14.253-30.167h.738zm-.369 6.398l-5.188 10.931h10.315l-5.127-10.931zm36.237-6.398h-6.008c-3.35 0-5.619.137-6.809.41-1.791.41-3.247 1.292-4.368 2.646-1.121 1.34-1.682 2.994-1.682 4.963 0 1.64.383 3.083 1.149 4.327.779 1.244 1.886 2.187 3.322 2.83 1.435.629 3.418.95 5.947.964L139.768 315h3.732l10.828-14.027h1.723V315h3.014v-30.167zm-3.014 2.953v10.254l-5.189.041c-2.009 0-3.5-.191-4.47-.574-.957-.383-1.709-.991-2.256-1.825a5.21 5.21 0 01-.8-2.83c0-1.012.273-1.928.82-2.748.547-.834 1.265-1.429 2.154-1.785.888-.355 2.365-.533 4.429-.533h5.312zm18.97 21.595l2.563-1.538c1.805 3.322 3.89 4.983 6.255 4.983a6.054 6.054 0 002.85-.697c.889-.479 1.566-1.114 2.031-1.907a4.909 4.909 0 00.697-2.523c0-1.011-.342-2.003-1.025-2.973-.944-1.34-2.666-2.954-5.168-4.84-2.516-1.901-4.081-3.275-4.697-4.122-1.066-1.422-1.599-2.96-1.599-4.615 0-1.312.314-2.508.943-3.588.629-1.081 1.511-1.928 2.646-2.543a7.643 7.643 0 013.732-.944c1.422 0 2.748.356 3.979 1.067 1.244.697 2.556 1.989 3.937 3.876l-2.461 1.866c-1.135-1.504-2.105-2.495-2.912-2.974a4.951 4.951 0 00-2.604-.718c-1.217 0-2.215.37-2.995 1.108-.765.738-1.148 1.647-1.148 2.727 0 .657.137 1.292.41 1.908.274.615.773 1.285 1.497 2.009.397.383 1.695 1.388 3.897 3.015 2.611 1.928 4.402 3.644 5.373 5.147.97 1.504 1.456 3.015 1.456 4.533 0 2.187-.834 4.088-2.502 5.701-1.655 1.613-3.671 2.42-6.05 2.42-1.832 0-3.493-.486-4.983-1.456-1.491-.985-2.865-2.625-4.122-4.922zm24.055-24.548h17.288v2.974h-14.273v9.433h14.15v2.953h-14.15v11.833h14.15V315h-17.165v-30.167zm50.593 5.599l-2.379 1.825c-1.312-1.709-2.892-3.001-4.737-3.876-1.832-.889-3.849-1.333-6.05-1.333-2.406 0-4.635.581-6.686 1.743-2.05 1.148-3.643 2.7-4.778 4.655-1.121 1.942-1.682 4.129-1.682 6.563 0 3.678 1.258 6.747 3.774 9.208 2.529 2.461 5.715 3.691 9.557 3.691 4.224 0 7.758-1.654 10.602-4.963l2.379 1.805c-1.504 1.914-3.384 3.397-5.64 4.45-2.242 1.039-4.751 1.559-7.526 1.559-5.277 0-9.441-1.757-12.489-5.271-2.557-2.967-3.835-6.549-3.835-10.746 0-4.416 1.545-8.128 4.634-11.136 3.104-3.021 6.987-4.532 11.649-4.532 2.816 0 5.359.561 7.629 1.682 2.269 1.107 4.129 2.666 5.578 4.676zm6.173-5.599h3.014v18.211c0 2.16.041 3.507.123 4.04.151 1.189.5 2.187 1.046 2.994.547.793 1.388 1.463 2.523 2.01 1.135.533 2.276.8 3.425.8.998 0 1.955-.212 2.871-.636a6.396 6.396 0 002.297-1.764c.615-.752 1.066-1.661 1.353-2.727.205-.766.308-2.338.308-4.717v-18.211h3.014v18.211c0 2.693-.266 4.874-.799 6.542-.52 1.654-1.573 3.097-3.159 4.327-1.572 1.231-3.479 1.846-5.721 1.846-2.434 0-4.519-.581-6.255-1.743-1.736-1.162-2.899-2.701-3.486-4.615-.37-1.175-.554-3.295-.554-6.357v-18.211zm27.583 0h6.009c3.349 0 5.619.137 6.808.41 1.791.41 3.247 1.292 4.368 2.646 1.121 1.34 1.682 2.994 1.682 4.963 0 1.64-.39 3.083-1.169 4.327-.766 1.244-1.866 2.187-3.302 2.83-1.435.629-3.418.95-5.947.964L302.723 315h-3.733l-10.828-14.027h-1.723V315h-3.014v-30.167zm3.014 2.953v10.254l5.189.041c2.01 0 3.493-.191 4.45-.574.971-.383 1.723-.991 2.256-1.825a5.11 5.11 0 00.82-2.83 4.842 4.842 0 00-.82-2.748c-.547-.834-1.265-1.429-2.153-1.785-.889-.355-2.366-.533-4.43-.533h-5.312zm21.903-2.953h3.014V315h-3.014v-30.167zm6.952 2.933v-2.933h16.55v2.933h-6.727V315h-3.076v-27.234h-6.747zm18.498-2.933h3.486l7.711 12.428 7.588-12.428h3.486l-9.556 15.75V315h-2.974v-14.417l-9.741-15.75zm24.896 17.575h11.28v2.502h-11.28v-2.502zM398.679 315h-3.138v-23.112L375.669 315h-.677v-30.167h3.015v23.522l19.995-23.522h.677V315zm10.336 0h-2.994v-30.167h15.114v2.974h-12.12V315zm16.426-30.167h6.009c3.446 0 5.77.15 6.973.451 1.723.424 3.131 1.299 4.224 2.625 1.094 1.313 1.641 2.967 1.641 4.963 0 2.01-.533 3.671-1.6 4.983-1.066 1.299-2.536 2.174-4.409 2.625-1.367.329-3.924.493-7.67.493h-2.153V315h-3.015v-30.167zm3.015 2.933v10.254l5.106.061c2.065 0 3.576-.185 4.533-.554a4.72 4.72 0 002.256-1.825c.546-.848.82-1.791.82-2.83a4.947 4.947 0 00-.82-2.768c-.547-.848-1.272-1.45-2.174-1.805-.889-.356-2.352-.533-4.389-.533h-5.332zm34.187-2.933L476.711 315h-3.24l-4.738-9.926h-13.002L451.015 315h-3.364l14.253-30.167h.739zm-.37 6.398l-5.188 10.931H467.4l-5.127-10.931zm30.701 28.281H490v-7.322h2.461l11.833-27.357h1.046l12.489 27.357h2.359v7.322h-2.974V315h-24.24v4.512zm2.891-7.322h18.396l-9.434-21.123-8.962 21.123zm53.033 2.81h-3.281l-9.987-23.317L525.458 315h-3.281l13.125-30.167h.656L548.898 315zm22.169-30.167h-6.008c-3.35 0-5.62.137-6.809.41-1.791.41-3.247 1.292-4.368 2.646-1.121 1.34-1.682 2.994-1.682 4.963 0 1.64.383 3.083 1.149 4.327.779 1.244 1.886 2.187 3.322 2.83 1.435.629 3.418.95 5.947.964L551.77 315h3.732l10.828-14.027h1.723V315h3.014v-30.167zm-3.014 2.953v10.254l-5.189.041c-2.01 0-3.5-.191-4.47-.574-.957-.383-1.709-.991-2.256-1.825a5.2 5.2 0 01-.8-2.83c0-1.012.273-1.928.82-2.748.547-.834 1.265-1.429 2.154-1.785.888-.355 2.365-.533 4.429-.533h5.312zm39.559 13.207V315h-3.055v-14.007l-.923-.841L591.288 315h-3.999l14.397-16.714-13.248-13.453h4.06l12.059 12.756v-12.756h3.055v12.756l12.079-12.756h4.081l-13.248 13.453L624.9 315h-3.999l-12.366-14.848-.923.841zm21.841-16.16h17.288v2.974h-14.273v9.433h14.15v2.953h-14.15v11.833h14.15V315h-17.165v-30.167zm22.456 0h3.035v12.653h15.34v-12.653h3.035V315h-3.035v-14.561h-15.34V315h-3.035v-30.167zm63.779 27.316h5.168v7.363h-2.83V315H680.62v-30.167h3.035v27.316h12.879v-27.316h3.035v27.316h13.084v-27.316h3.035v27.316zM749.157 315h-3.137v-23.112L726.147 315h-.676v-30.167h3.014v23.522l19.995-23.522h.677V315zm7.342-30.167h3.035v12.653h15.34v-12.653h3.035V315h-3.035v-14.561h-15.34V315h-3.035v-30.167z" fill="#fff"/><circle cx="163" cy="202" r="12" fill="url(#pattern0)"/><defs><pattern id="pattern0" patternContentUnits="objectBoundingBox" width="1" height="1"><use xlink:href="#image0" transform="translate(-.083 -.083) scale(.07778)"/></pattern><image id="image0" width="15" height="15" xlink:href="data:image/png;base64,iVBORw0KGgoAAAANSUhEUgAAAA8AAAAPCAYAAAA71pVKAAABAUlEQVQ4T2NkwAIeR2f+/3n1BsPfj58YmPn5GNi1NRhkl05nRFeKInDfOej/r3sPsZkHFmNTkmdQ3LsOrgfOuK1r9//fl684NcIkmHi4GVQvHwLrAxPoNn7//4/h5Z9fDD/+/2PgYGRiEGdhY+BkZIIbDHMBWPNNReP/MJlXf38x3Pj5jeEfkhtA2jTYuRjEmNngour3zzIyggLn27FTYEGQjae/f0LRCHcuAwODKScf3AVcVmYMjHcMHP+DQhUEHvz+Aca4gAIrBwMIgwAoFhiRnXzj1zeGF39+4dQswcLGoMHGBZenzGaK/ExRaFMczyADyE5hsOAjO20jxw+xuQoAiE2eIB5ftpEAAAAASUVORK5CYII="/></defs></svg>

<svg width="837" height="326" viewBox="0 0 837 326" fill="none" xmlns="http://www.w3.org/2000/svg">
<path d="M78.192 39.6H95.76V17.712C95.76 17.712 82.224 5.90399 58.752 5.90399C26.928 5.90399 5.04 28.08 5.04 57.744C5.04 87.12 26.64 109.296 59.328 109.296C84.096 109.296 95.76 96.48 95.76 96.48V74.88H78.192V89.136C74.016 91.296 67.392 93.6 58.896 93.6C37.152 93.6 23.904 78.192 23.904 57.6C23.904 36.864 37.44 21.6 58.608 21.6C67.248 21.6 73.872 24.048 78.192 26.064V39.6ZM198.105 108H241.305V94.752H229.065V20.448H241.305V7.19999H128.985V20.448H141.081V94.752H128.985V108H172.041V94.752H159.945V21.168H210.345V94.752H198.105V108ZM300.493 19.296H313.453L282.637 94.752H269.821V108H296.749L306.685 83.52H351.325L361.261 108H388.189V94.752H375.229L339.661 7.19999H300.493V19.296ZM329.005 28.8L345.565 69.552H312.301L329.005 28.8ZM482.601 39.6H500.169V17.712C500.169 17.712 486.633 5.90399 463.161 5.90399C431.337 5.90399 409.449 28.08 409.449 57.744C409.449 87.12 431.049 109.296 463.737 109.296C488.505 109.296 500.169 96.48 500.169 96.48V74.88H482.601V89.136C478.425 91.296 471.801 93.6 463.305 93.6C441.561 93.6 428.313 78.192 428.313 57.6C428.313 36.864 441.849 21.6 463.017 21.6C471.657 21.6 478.281 24.048 482.601 26.064V39.6ZM533.394 20.448H545.49V94.752H533.394V108H564.354L617.634 34.848V94.752H605.394V108H648.594V94.752H636.354V20.448H648.594V7.19999H617.634L564.354 80.352V20.448H576.45V7.19999H533.394V20.448ZM712.926 56.448H723.582V94.752H712.926V108H741.15L774.558 65.808V94.752H763.902V108H802.926V94.752H792.126V56.448H802.926V43.2H774.558L741.15 85.392V56.448H751.95V43.2H712.926V56.448ZM78.192 183.6H95.76V161.712C95.76 161.712 82.224 149.904 58.752 149.904C26.928 149.904 5.04 172.08 5.04 201.744C5.04 231.12 26.64 253.296 59.328 253.296C84.096 253.296 95.76 240.48 95.76 240.48V218.88H78.192V233.136C74.016 235.296 67.392 237.6 58.896 237.6C37.152 237.6 23.904 222.192 23.904 201.6C23.904 180.864 37.44 165.6 58.608 165.6C67.248 165.6 73.872 168.048 78.192 170.064V183.6ZM108.681 201.6C108.681 231.12 131.577 253.296 161.817 253.296C192.201 253.296 215.097 231.12 215.097 201.6C215.097 172.08 192.201 149.904 161.817 149.904C131.577 149.904 108.681 172.08 108.681 201.6ZM127.545 201.6C127.545 180.864 141.945 165.6 161.817 165.6C181.833 165.6 196.233 180.864 196.233 201.6C196.233 222.336 181.833 237.6 161.817 237.6C141.945 237.6 127.545 222.336 127.545 201.6ZM300.618 151.2L274.266 186.192L248.058 151.2H223.722V164.448H236.394L263.466 200.592L234.666 238.752H221.994V252H246.33L274.266 214.848L302.202 252H326.826V238.752H313.866L285.066 200.592L312.282 164.448H324.954V151.2H300.618ZM334.353 164.448H346.449V238.752H334.353V252H380.577V238.752H365.313V212.112H387.201C407.793 212.112 422.481 199.44 422.481 181.584C422.481 163.872 407.793 151.2 387.201 151.2H334.353V164.448ZM387.201 165.168C397.137 165.168 403.617 172.224 403.617 181.584C403.617 190.944 397.137 198.144 387.201 198.144H365.313V165.168H387.201ZM450.09 163.296H463.05L432.234 238.752H419.418V252H446.346L456.282 227.52H500.922L510.858 252H537.786V238.752H524.826L489.258 151.2H450.09V163.296ZM478.602 172.8L495.162 213.552H461.898L478.602 172.8ZM613.848 252H657.048V238.752H644.808V164.448H657.048V151.2H613.848V164.448H626.088V193.248H575.688V164.448H587.784V151.2H544.728V164.448H556.824V238.752H544.728V252H587.784V238.752H575.688V207.072H626.088V238.752H613.848V252ZM664.541 164.448H676.637V238.752H664.541V252H695.501L748.781 178.848V238.752H736.541V252H779.741V238.752H767.501V164.448H779.741V151.2H748.781L695.501 224.352V164.448H707.597V151.2H664.541V164.448ZM791.339 242.352C791.339 248.4 796.379 253.296 802.427 253.296C808.331 253.296 813.371 248.4 813.371 242.352C813.371 236.304 808.331 231.408 802.427 231.408C796.379 231.408 791.339 236.304 791.339 242.352Z" fill="white"/>
<path d="M10.6299 284.833H32.04V315H29.0049V287.704H13.665V315H10.6299V284.833ZM39.4023 284.833H56.6904V287.807H42.417V297.24H56.5674V300.193H42.417V312.026H56.5674V315H39.4023V284.833ZM61.8789 284.833H67.8877C71.333 284.833 73.6572 284.983 74.8604 285.284C76.583 285.708 77.9912 286.583 79.085 287.909C80.1787 289.222 80.7256 290.876 80.7256 292.872C80.7256 294.882 80.1924 296.543 79.126 297.855C78.0596 299.154 76.5898 300.029 74.7168 300.48C73.3496 300.809 70.793 300.973 67.0469 300.973H64.8936V315H61.8789V284.833ZM64.8936 287.766V298.02L70 298.081C72.0645 298.081 73.5752 297.896 74.5322 297.527C75.4893 297.145 76.2412 296.536 76.7881 295.702C77.335 294.854 77.6084 293.911 77.6084 292.872C77.6084 291.86 77.335 290.938 76.7881 290.104C76.2412 289.256 75.5166 288.654 74.6143 288.299C73.7256 287.943 72.2627 287.766 70.2256 287.766H64.8936ZM86.8369 284.833H92.7842C95.1768 284.833 97.0156 285.12 98.3008 285.694C99.5859 286.255 100.598 287.123 101.336 288.299C102.088 289.475 102.464 290.78 102.464 292.216C102.464 293.556 102.136 294.779 101.479 295.887C100.823 296.98 99.8594 297.869 98.5879 298.553C100.16 299.086 101.37 299.715 102.218 300.439C103.065 301.15 103.722 302.019 104.187 303.044C104.665 304.056 104.904 305.156 104.904 306.346C104.904 308.766 104.016 310.816 102.238 312.498C100.475 314.166 98.1025 315 95.1221 315H86.8369V284.833ZM89.79 287.786V297.445H91.5127C93.6045 297.445 95.1426 297.254 96.127 296.871C97.1113 296.475 97.8906 295.859 98.4648 295.025C99.0391 294.178 99.3262 293.241 99.3262 292.216C99.3262 290.835 98.8408 289.755 97.8701 288.976C96.9131 288.183 95.3818 287.786 93.2764 287.786H89.79ZM89.79 300.48V312.047H93.5225C95.7236 312.047 97.3369 311.835 98.3623 311.411C99.3877 310.974 100.208 310.297 100.823 309.381C101.452 308.465 101.767 307.474 101.767 306.407C101.767 305.067 101.329 303.898 100.454 302.9C99.5791 301.902 98.376 301.219 96.8447 300.85C95.8193 300.604 94.0352 300.48 91.4922 300.48H89.79ZM123.197 284.833L137.266 315H134.025L129.288 305.074H116.286L111.569 315H108.206L122.459 284.833H123.197ZM122.828 291.231L117.64 302.162H127.955L122.828 291.231ZM159.065 284.833H153.057C149.707 284.833 147.438 284.97 146.248 285.243C144.457 285.653 143.001 286.535 141.88 287.889C140.759 289.229 140.198 290.883 140.198 292.852C140.198 294.492 140.581 295.935 141.347 297.179C142.126 298.423 143.233 299.366 144.669 300.009C146.104 300.638 148.087 300.959 150.616 300.973L139.768 315H143.5L154.328 300.973H156.051V315H159.065V284.833ZM156.051 287.786V298.04L150.862 298.081C148.853 298.081 147.362 297.89 146.392 297.507C145.435 297.124 144.683 296.516 144.136 295.682C143.603 294.834 143.336 293.891 143.336 292.852C143.336 291.84 143.609 290.924 144.156 290.104C144.703 289.27 145.421 288.675 146.31 288.319C147.198 287.964 148.675 287.786 150.739 287.786H156.051ZM175.021 309.381L177.584 307.843C179.389 311.165 181.474 312.826 183.839 312.826C184.851 312.826 185.801 312.594 186.689 312.129C187.578 311.65 188.255 311.015 188.72 310.222C189.185 309.429 189.417 308.588 189.417 307.699C189.417 306.688 189.075 305.696 188.392 304.726C187.448 303.386 185.726 301.772 183.224 299.886C180.708 297.985 179.143 296.611 178.527 295.764C177.461 294.342 176.928 292.804 176.928 291.149C176.928 289.837 177.242 288.641 177.871 287.561C178.5 286.48 179.382 285.633 180.517 285.018C181.665 284.389 182.909 284.074 184.249 284.074C185.671 284.074 186.997 284.43 188.228 285.141C189.472 285.838 190.784 287.13 192.165 289.017L189.704 290.883C188.569 289.379 187.599 288.388 186.792 287.909C185.999 287.431 185.131 287.191 184.188 287.191C182.971 287.191 181.973 287.561 181.193 288.299C180.428 289.037 180.045 289.946 180.045 291.026C180.045 291.683 180.182 292.318 180.455 292.934C180.729 293.549 181.228 294.219 181.952 294.943C182.349 295.326 183.647 296.331 185.849 297.958C188.46 299.886 190.251 301.602 191.222 303.105C192.192 304.609 192.678 306.12 192.678 307.638C192.678 309.825 191.844 311.726 190.176 313.339C188.521 314.952 186.505 315.759 184.126 315.759C182.294 315.759 180.633 315.273 179.143 314.303C177.652 313.318 176.278 311.678 175.021 309.381ZM199.076 284.833H216.364V287.807H202.091V297.24H216.241V300.193H202.091V312.026H216.241V315H199.076V284.833ZM249.669 290.432L247.29 292.257C245.978 290.548 244.398 289.256 242.553 288.381C240.721 287.492 238.704 287.048 236.503 287.048C234.097 287.048 231.868 287.629 229.817 288.791C227.767 289.939 226.174 291.491 225.039 293.446C223.918 295.388 223.357 297.575 223.357 300.009C223.357 303.687 224.615 306.756 227.131 309.217C229.66 311.678 232.846 312.908 236.688 312.908C240.912 312.908 244.446 311.254 247.29 307.945L249.669 309.75C248.165 311.664 246.285 313.147 244.029 314.2C241.787 315.239 239.278 315.759 236.503 315.759C231.226 315.759 227.062 314.002 224.014 310.488C221.457 307.521 220.179 303.939 220.179 299.742C220.179 295.326 221.724 291.614 224.813 288.606C227.917 285.585 231.8 284.074 236.462 284.074C239.278 284.074 241.821 284.635 244.091 285.756C246.36 286.863 248.22 288.422 249.669 290.432ZM255.842 284.833H258.856V303.044C258.856 305.204 258.897 306.551 258.979 307.084C259.13 308.273 259.479 309.271 260.025 310.078C260.572 310.871 261.413 311.541 262.548 312.088C263.683 312.621 264.824 312.888 265.973 312.888C266.971 312.888 267.928 312.676 268.844 312.252C269.76 311.828 270.525 311.24 271.141 310.488C271.756 309.736 272.207 308.827 272.494 307.761C272.699 306.995 272.802 305.423 272.802 303.044V284.833H275.816V303.044C275.816 305.737 275.55 307.918 275.017 309.586C274.497 311.24 273.444 312.683 271.858 313.913C270.286 315.144 268.379 315.759 266.137 315.759C263.703 315.759 261.618 315.178 259.882 314.016C258.146 312.854 256.983 311.315 256.396 309.401C256.026 308.226 255.842 306.106 255.842 303.044V284.833ZM283.425 284.833H289.434C292.783 284.833 295.053 284.97 296.242 285.243C298.033 285.653 299.489 286.535 300.61 287.889C301.731 289.229 302.292 290.883 302.292 292.852C302.292 294.492 301.902 295.935 301.123 297.179C300.357 298.423 299.257 299.366 297.821 300.009C296.386 300.638 294.403 300.959 291.874 300.973L302.723 315H298.99L288.162 300.973H286.439V315H283.425V284.833ZM286.439 287.786V298.04L291.628 298.081C293.638 298.081 295.121 297.89 296.078 297.507C297.049 297.124 297.801 296.516 298.334 295.682C298.881 294.834 299.154 293.891 299.154 292.852C299.154 291.84 298.881 290.924 298.334 290.104C297.787 289.27 297.069 288.675 296.181 288.319C295.292 287.964 293.815 287.786 291.751 287.786H286.439ZM308.342 284.833H311.356V315H308.342V284.833ZM315.294 287.766V284.833H331.844V287.766H325.117V315H322.041V287.766H315.294ZM333.792 284.833H337.278L344.989 297.261L352.577 284.833H356.063L346.507 300.583V315H343.533V300.583L333.792 284.833ZM358.688 302.408H369.968V304.91H358.688V302.408ZM398.679 315H395.541V291.888L375.669 315H374.992V284.833H378.007V308.355L398.002 284.833H398.679V315ZM409.015 315H406.021V284.833H421.135V287.807H409.015V315ZM425.441 284.833H431.45C434.896 284.833 437.22 284.983 438.423 285.284C440.146 285.708 441.554 286.583 442.647 287.909C443.741 289.222 444.288 290.876 444.288 292.872C444.288 294.882 443.755 296.543 442.688 297.855C441.622 299.154 440.152 300.029 438.279 300.48C436.912 300.809 434.355 300.973 430.609 300.973H428.456V315H425.441V284.833ZM428.456 287.766V298.02L433.562 298.081C435.627 298.081 437.138 297.896 438.095 297.527C439.052 297.145 439.804 296.536 440.351 295.702C440.897 294.854 441.171 293.911 441.171 292.872C441.171 291.86 440.897 290.938 440.351 290.104C439.804 289.256 439.079 288.654 438.177 288.299C437.288 287.943 435.825 287.766 433.788 287.766H428.456ZM462.643 284.833L476.711 315H473.471L468.733 305.074H455.731L451.015 315H447.651L461.904 284.833H462.643ZM462.273 291.231L457.085 302.162H467.4L462.273 291.231ZM492.974 319.512H490V312.19H492.461L504.294 284.833H505.34L517.829 312.19H520.188V319.512H517.214V315H492.974V319.512ZM495.865 312.19H514.261L504.827 291.067L495.865 312.19ZM548.898 315H545.617L535.63 291.683L525.458 315H522.177L535.302 284.833H535.958L548.898 315ZM571.067 284.833H565.059C561.709 284.833 559.439 284.97 558.25 285.243C556.459 285.653 555.003 286.535 553.882 287.889C552.761 289.229 552.2 290.883 552.2 292.852C552.2 294.492 552.583 295.935 553.349 297.179C554.128 298.423 555.235 299.366 556.671 300.009C558.106 300.638 560.089 300.959 562.618 300.973L551.77 315H555.502L566.33 300.973H568.053V315H571.067V284.833ZM568.053 287.786V298.04L562.864 298.081C560.854 298.081 559.364 297.89 558.394 297.507C557.437 297.124 556.685 296.516 556.138 295.682C555.604 294.834 555.338 293.891 555.338 292.852C555.338 291.84 555.611 290.924 556.158 290.104C556.705 289.27 557.423 288.675 558.312 288.319C559.2 287.964 560.677 287.786 562.741 287.786H568.053ZM607.612 300.993V315H604.557V300.993L603.634 300.152L591.288 315H587.289L601.686 298.286L588.438 284.833H592.498L604.557 297.589V284.833H607.612V297.589L619.691 284.833H623.772L610.524 298.286L624.9 315H620.901L608.535 300.152L607.612 300.993ZM629.453 284.833H646.741V287.807H632.468V297.24H646.618V300.193H632.468V312.026H646.618V315H629.453V284.833ZM651.909 284.833H654.944V297.486H670.284V284.833H673.319V315H670.284V300.439H654.944V315H651.909V284.833ZM715.688 312.149H720.856V319.512H718.026V315H680.62V284.833H683.655V312.149H696.534V284.833H699.569V312.149H712.653V284.833H715.688V312.149ZM749.157 315H746.02V291.888L726.147 315H725.471V284.833H728.485V308.355L748.48 284.833H749.157V315ZM756.499 284.833H759.534V297.486H774.874V284.833H777.909V315H774.874V300.439H759.534V315H756.499V284.833Z" fill="white"/>
</svg>
